X: 1
T: Women of the Sidhe
C: Bill Whelan
%S: Riverdance
S: Fiddle Hell Online 2021-5-16
F: https://thesession.org/tunes/1350
N: Some published versions have the initial and/or final B notes; others don't.
R: jig
M: 6/8
L: 1/8
K: G
   B |\
egf edB | ebb eaa | egf ede | gfe deB |
egf edB | ebb eaa | egf ede | gfe e2 :|
|: B |\
cda cgc | edc BcA | cGc Acd | edc ABc |
cda cgc | edc BcA | cGc ABc | dec d2 :|
